X:100
T:Hooker John
M:C|
L:1/8
Q:1/4=3D100
K:A
c2B2|\
A2E2 FE(CE)|A2A2 A2AB|c3B B2A|c2 B4 cB|
A2E2(FE)(CE)|A2A2 A2AB|c3F c3B|B2 A4 z2|
E6     D2|CD3- D2d2|c4  c4 |c2B2 B4 |
E3E  E3D |C2E4   z2|A3B c3A|B2A2   ||
